src/cmd/32/getinvolved.svg

<?xml version="1.0" encoding="UTF-8" standalone="no"?>
<svg
   xmlns:dc="http://purl.org/dc/elements/1.1/"
   xmlns:cc="http://creativecommons.org/ns#"
   xmlns:rdf="http://www.w3.org/1999/02/22-rdf-syntax-ns#"
   xmlns:svg="http://www.w3.org/2000/svg"
   xmlns="http://www.w3.org/2000/svg"
   xmlns:sodipodi="http://sodipodi.sourceforge.net/DTD/sodipodi-0.dtd"
   xmlns:inkscape="http://www.inkscape.org/namespaces/inkscape"
   viewBox="0 0 32 32"
   version="1.1"
   id="svg4"
   sodipodi:docname="getinvolved.svg"
   inkscape:export-filename="/home/jupiter007/Libreoffice yaru theme fullcolor/build/cmd/32/getinvolved.png"
   inkscape:export-xdpi="95"
   inkscape:export-ydpi="95"
   inkscape:version="0.92.5 (2060ec1f9f, 2020-04-08)">
  <metadata
     id="metadata10">
    <rdf:RDF>
      <cc:Work
         rdf:about="">
        <dc:format>image/svg+xml</dc:format>
        <dc:type
           rdf:resource="http://purl.org/dc/dcmitype/StillImage" />
      </cc:Work>
    </rdf:RDF>
  </metadata>
  <defs
     id="defs8" />
  <sodipodi:namedview
     pagecolor="#ffffff"
     bordercolor="#666666"
     borderopacity="1"
     objecttolerance="10"
     gridtolerance="10"
     guidetolerance="10"
     inkscape:pageopacity="0"
     inkscape:pageshadow="2"
     inkscape:window-width="1920"
     inkscape:window-height="1011"
     id="namedview6"
     showgrid="true"
     inkscape:zoom="20.85965"
     inkscape:cx="3.7704542"
     inkscape:cy="13.012124"
     inkscape:window-x="0"
     inkscape:window-y="32"
     inkscape:window-maximized="1"
     inkscape:current-layer="svg4">
    <inkscape:grid
       type="xygrid"
       id="grid825" />
  </sodipodi:namedview>
  <path
     d="M 20.5,4 C 18.014719,4 16,6.01472 16,8.5 16,10.98528 18.014719,13 20.5,13 22.985281,13 25,10.98528 25,8.5 25,6.01472 22.985281,4 20.5,4 Z m 0,10 C 16.357864,14 13,17.58172 13,22 v 1 h 15 v -1 c 0,-4.41828 -3.357864,-8 -7.5,-8 z"
     id="path829"
     inkscape:connector-curvature="0"
     style="opacity:0.6;fill:#000000;fill-opacity:1;stroke:#000000;stroke-width:2;stroke-linejoin:round;stroke-miterlimit:4;stroke-dasharray:none"
     sodipodi:nodetypes="sssssssccss" />
  <path
     sodipodi:nodetypes="sssssssccss"
     style="fill:#aee3f8;fill-opacity:1"
     inkscape:connector-curvature="0"
     id="path831"
     d="M 20.5,4 C 18.014719,4 16,6.01472 16,8.5 16,10.98528 18.014719,13 20.5,13 22.985281,13 25,10.98528 25,8.5 25,6.01472 22.985281,4 20.5,4 Z m 0,10 C 16.357864,14 13,17.58172 13,22 v 1 h 15 v -1 c 0,-4.41828 -3.357864,-8 -7.5,-8 z" />
  <path
     sodipodi:nodetypes="sssssssccss"
     style="fill:#000000;fill-opacity:1;stroke:#000000;opacity:0.6;stroke-width:2;stroke-miterlimit:4;stroke-dasharray:none;stroke-linejoin:round"
     inkscape:connector-curvature="0"
     id="path827"
     d="M 11.5,9 C 9.014719,9 7,11.01472 7,13.5 7,15.98528 9.014719,18 11.5,18 13.985281,18 16,15.98528 16,13.5 16,11.01472 13.985281,9 11.5,9 Z m 0,10 C 7.357864,19 4,22.58172 4,27 v 1 h 15 v -1 c 0,-4.41828 -3.357864,-8 -7.5,-8 z" />
  <path
     d="M 11.5,9 C 9.014719,9 7,11.01472 7,13.5 7,15.98528 9.014719,18 11.5,18 13.985281,18 16,15.98528 16,13.5 16,11.01472 13.985281,9 11.5,9 Z m 0,10 C 7.357864,19 4,22.58172 4,27 v 1 h 15 v -1 c 0,-4.41828 -3.357864,-8 -7.5,-8 z"
     id="path2"
     inkscape:connector-curvature="0"
     style="fill:#aee3f8;fill-opacity:1"
     sodipodi:nodetypes="sssssssccss" />
</svg>

<svg viewBox="0 0 32 32" xmlns="http://www.w3.org/2000/svg"><path d="m20.5 4a4.5 4.5 0 0 0 -4.5 4.5 4.5 4.5 0 0 0 4.5 4.5 4.5 4.5 0 0 0 4.5-4.5 4.5 4.5 0 0 0 -4.5-4.5zm0 1a3.5 3.5 0 0 1 3.5 3.5 3.5 3.5 0 0 1 -3.5 3.5 3.5 3.5 0 0 1 -3.5-3.5 3.5 3.5 0 0 1 3.5-3.5zm-9 4c-2.485281 0-4.5 2.01472-4.5 4.5s2.014719 4.5 4.5 4.5 4.5-2.01472 4.5-4.5-2.014719-4.5-4.5-4.5zm0 1a3.5 3.5 0 0 1 3.5 3.5 3.5 3.5 0 0 1 -3.5 3.5 3.5 3.5 0 0 1 -3.5-3.5 3.5 3.5 0 0 1 3.5-3.5zm9 4c-.88285.003-1.758266.17228-2.585938.5-.06618.42368-.174132.83977-.322265 1.24219.90271-.48731 1.89843-.74142 2.908203-.74219 3.589851 0 6.5 3.13401 6.5 7h-8.341797c.170323.32329.325499.65711.464844 1h8.876953v-1c0-4.41828-3.357864-8-7.5-8zm-9 5c-4.142136 0-7.5 3.58172-7.5 8v1h15v-1c0-4.41828-3.357864-8-7.5-8zm0 1c3.589851 0 6.5 3.13401 6.5 7h-13c0-3.86599 2.910149-7 6.5-7z" fill="#232629"/></svg>
